TV/Source/Nova Gold HD.svg

<svg height="55.278137mm" viewBox="0 0 167.41064 55.277936" width="167.41064mm" xmlns="http://www.w3.org/2000/svg"><g fill="#8b621f"><path d="m0 0h .548v-.287c.151.203.392.329.683.329.522 0 .88-.379.88-.898v-1.314h-.548v1.218c0 .29-.21.497-.505.497s-.51-.207-.51-.497v-1.218h-.548z" transform="matrix(7.5682 0 0 -7.5682 2.716984 .325268)"/><path d="m0 0c .337 0 .594.27.594.628 0 .354-.257.624-.594.624s-.59-.27-.59-.624c0-.358.253-.628.59-.628m0 1.753c.657 0 1.159-.489 1.159-1.125 0-.641-.502-1.13-1.159-1.13s-1.159.489-1.159 1.13c0 .636.502 1.125 1.159 1.125" transform="matrix(7.5682 0 0 -7.5682 29.81114 13.26689)"/><path d="m0 0h .59l.599-1.597.602 1.597h.552l-.864-2.17h-.615z" transform="matrix(7.5682 0 0 -7.5682 38.438888 .325268)"/><path d="m0 0c .337 0 .594.27.594.628 0 .354-.257.624-.594.624s-.59-.27-.59-.624c0-.358.253-.628.59-.628m.594-.19c-.172-.194-.413-.312-.704-.312-.594 0-1.049.489-1.049 1.13 0 .636.455 1.125 1.049 1.125.291 0 .532-.118.704-.316v.274h.548v-2.17h-.548z" transform="matrix(7.5682 0 0 -7.5682 64.851906 13.26689)"/><path d="m0 0c .969 0 1.651-.584 1.925-1.184l-.921-.35c-.17.344-.531.624-1.004.624-.642 0-1.132-.52-1.132-1.191 0-.67.49-1.19 1.132-1.19.531 0 .881.304.992.607h-1.336v.875h2.45c.158-1.476-.933-2.392-2.106-2.392-1.22 0-2.159.916-2.159 2.1 0 1.185.939 2.101 2.159 2.101" transform="matrix(7.5682 0 0 -7.5682 16.339744 23.48396)"/><path d="m0 0c .642 0 1.132.519 1.132 1.19s-.49 1.19-1.132 1.19-1.132-.519-1.132-1.19.49-1.19 1.132-1.19m0 3.291c1.22 0 2.159-.916 2.159-2.101 0-1.184-.939-2.1-2.159-2.1s-2.159.916-2.159 2.1c0 1.185.939 2.101 2.159 2.101" transform="matrix(7.5682 0 0 -7.5682 52.061648 48.383338)"/><path d="m0 0h .992v-3.209h1.809v-.875h-2.801z" transform="matrix(7.5682 0 0 -7.5682 72.874198 23.86237)"/><path d="m0 0c .694 0 1.155.49 1.155 1.167 0 .683-.461 1.167-1.155 1.167h-.618v-2.334zm-1.61 3.209h1.697c1.214 0 2.095-.887 2.095-2.042 0-1.155-.881-2.042-2.095-2.042h-1.697z" transform="matrix(7.5682 0 0 -7.5682 109.50429 48.156292)"/><g transform="translate(8.513779 -18.536812)"><path d="m125.72608 42.473886h3.91057v6.331508h6.91668v-6.331508h3.91057v16.12739h-3.91057v-6.344489h-6.91668v6.344489h-3.91057z" fill="#8b621f" stroke-width="1.297455"/><path d="m150.2843 55.137558c2.74546 0 4.5592-1.933189 4.5592-4.606009 0-2.698649-1.81388-4.606008-4.5592-4.606008h-2.43917v9.211886zm-6.36141-12.663148h6.7027c4.79535 0 8.27126 3.503053 8.27126 8.057139 0 4.554087-3.47591 8.05714-8.27126 8.05714h-6.7027z" fill="#8b621f" stroke-width="1.297455"/></g></g></svg>

<?xml version="1.0" encoding="UTF-8" standalone="no"?>
<svg
   xmlns:dc="http://purl.org/dc/elements/1.1/"
   xmlns:cc="http://creativecommons.org/ns#"
   xmlns:rdf="http://www.w3.org/1999/02/22-rdf-syntax-ns#"
   xmlns:svg="http://www.w3.org/2000/svg"
   xmlns="http://www.w3.org/2000/svg"
   xmlns:sodipodi="http://sodipodi.sourceforge.net/DTD/sodipodi-0.dtd"
   xmlns:inkscape="http://www.inkscape.org/namespaces/inkscape"
   width="167.41064mm"
   height="55.278137mm"
   version="1.1"
   viewBox="0 0 167.41064 55.277936"
   id="svg54"
   sodipodi:docname="Nova Gold HD.svg"
   inkscape:version="0.92.0 r15299">
  <metadata
     id="metadata58">
    <rdf:RDF>
      <cc:Work
         rdf:about="">
        <dc:format>image/svg+xml</dc:format>
        <dc:type
           rdf:resource="http://purl.org/dc/dcmitype/StillImage" />
        <dc:title></dc:title>
      </cc:Work>
    </rdf:RDF>
  </metadata>
  <sodipodi:namedview
     pagecolor="#ffffff"
     bordercolor="#666666"
     borderopacity="1"
     objecttolerance="10"
     gridtolerance="10"
     guidetolerance="10"
     inkscape:pageopacity="0"
     inkscape:pageshadow="2"
     inkscape:window-width="1920"
     inkscape:window-height="1017"
     id="namedview56"
     showgrid="false"
     fit-margin-top="0"
     fit-margin-left="0"
     fit-margin-right="0"
     fit-margin-bottom="0"
     inkscape:zoom="0.94666667"
     inkscape:cx="270.78054"
     inkscape:cy="38.760176"
     inkscape:window-x="-8"
     inkscape:window-y="-8"
     inkscape:window-maximized="1"
     inkscape:current-layer="svg54" />
  <defs
     id="defs8">
    <clipPath
       id="clipPath87719">
      <path
         d="m 289.4,570.88 h 20.976 v 12.214 H 289.4 Z"
         id="path2"
         inkscape:connector-curvature="0" />
    </clipPath>
    <clipPath
       id="clipPath87709">
      <path
         d="m 289.4,569.48 h 20.976 v 15.025 H 289.4 Z"
         id="path5"
         inkscape:connector-curvature="0" />
    </clipPath>
  </defs>
  <g
     id="g18"
     transform="matrix(7.5682,0,0,-7.5682,2.7169838,0.32526771)"
     style="fill:#8b621f;fill-opacity:1">
    <path
       style="fill:#8b621f;fill-opacity:1"
       inkscape:connector-curvature="0"
       id="path16"
       d="m 0,0 h 0.548 v -0.287 c 0.151,0.203 0.392,0.329 0.683,0.329 0.522,0 0.88,-0.379 0.88,-0.898 V -2.17 H 1.563 v 1.218 c 0,0.29 -0.21,0.497 -0.505,0.497 -0.295,0 -0.51,-0.207 -0.51,-0.497 V -2.17 H 0 Z" />
  </g>
  <g
     id="g22"
     transform="matrix(7.5682,0,0,-7.5682,29.81114,13.26689)"
     style="fill:#8b621f;fill-opacity:1">
    <path
       style="fill:#8b621f;fill-opacity:1"
       inkscape:connector-curvature="0"
       id="path20"
       d="M 0,0 C 0.337,0 0.594,0.27 0.594,0.628 0.594,0.982 0.337,1.252 0,1.252 -0.337,1.252 -0.59,0.982 -0.59,0.628 -0.59,0.27 -0.337,0 0,0 m 0,1.753 c 0.657,0 1.159,-0.489 1.159,-1.125 0,-0.641 -0.502,-1.13 -1.159,-1.13 -0.657,0 -1.159,0.489 -1.159,1.13 0,0.636 0.502,1.125 1.159,1.125" />
  </g>
  <g
     id="g26"
     transform="matrix(7.5682,0,0,-7.5682,38.438888,0.32526771)"
     style="fill:#8b621f;fill-opacity:1">
    <path
       style="fill:#8b621f;fill-opacity:1"
       inkscape:connector-curvature="0"
       id="path24"
       d="M 0,0 H 0.59 L 1.189,-1.597 1.791,0 H 2.343 L 1.479,-2.17 H 0.864 Z" />
  </g>
  <g
     id="g30"
     transform="matrix(7.5682,0,0,-7.5682,64.851906,13.26689)"
     style="fill:#8b621f;fill-opacity:1">
    <path
       style="fill:#8b621f;fill-opacity:1"
       inkscape:connector-curvature="0"
       id="path28"
       d="M 0,0 C 0.337,0 0.594,0.27 0.594,0.628 0.594,0.982 0.337,1.252 0,1.252 -0.337,1.252 -0.59,0.982 -0.59,0.628 -0.59,0.27 -0.337,0 0,0 M 0.594,-0.19 C 0.422,-0.384 0.181,-0.502 -0.11,-0.502 c -0.594,0 -1.049,0.489 -1.049,1.13 0,0.636 0.455,1.125 1.049,1.125 0.291,0 0.532,-0.118 0.704,-0.316 v 0.274 h 0.548 v -2.17 H 0.594 Z" />
  </g>
  <g
     id="g34"
     transform="matrix(7.5682,0,0,-7.5682,16.339744,23.48396)"
     style="fill:#8b621f;fill-opacity:1">
    <path
       style="fill:#8b621f;fill-opacity:1"
       inkscape:connector-curvature="0"
       id="path32"
       d="M 0,0 C 0.969,0 1.651,-0.584 1.925,-1.184 L 1.004,-1.534 C 0.834,-1.19 0.473,-0.91 0,-0.91 c -0.642,0 -1.132,-0.52 -1.132,-1.191 0,-0.67 0.49,-1.19 1.132,-1.19 0.531,0 0.881,0.304 0.992,0.607 h -1.336 v 0.875 h 2.45 C 2.264,-3.285 1.173,-4.201 0,-4.201 c -1.22,0 -2.159,0.916 -2.159,2.1 C -2.159,-0.916 -1.22,0 0,0" />
  </g>
  <g
     id="g38"
     transform="matrix(7.5682,0,0,-7.5682,52.061648,48.383338)"
     style="fill:#8b621f;fill-opacity:1">
    <path
       style="fill:#8b621f;fill-opacity:1"
       inkscape:connector-curvature="0"
       id="path36"
       d="M 0,0 C 0.642,0 1.132,0.519 1.132,1.19 1.132,1.861 0.642,2.38 0,2.38 -0.642,2.38 -1.132,1.861 -1.132,1.19 -1.132,0.519 -0.642,0 0,0 m 0,3.291 c 1.22,0 2.159,-0.916 2.159,-2.101 0,-1.184 -0.939,-2.1 -2.159,-2.1 -1.22,0 -2.159,0.916 -2.159,2.1 0,1.185 0.939,2.101 2.159,2.101" />
  </g>
  <g
     id="g42"
     transform="matrix(7.5682,0,0,-7.5682,72.874198,23.86237)"
     style="fill:#8b621f;fill-opacity:1">
    <path
       style="fill:#8b621f;fill-opacity:1"
       inkscape:connector-curvature="0"
       id="path40"
       d="M 0,0 H 0.992 V -3.209 H 2.801 V -4.084 H 0 Z" />
  </g>
  <g
     id="g46"
     transform="matrix(7.5682,0,0,-7.5682,109.50429,48.156292)"
     style="fill:#8b621f;fill-opacity:1">
    <path
       style="fill:#8b621f;fill-opacity:1"
       inkscape:connector-curvature="0"
       id="path44"
       d="M 0,0 C 0.694,0 1.155,0.49 1.155,1.167 1.155,1.85 0.694,2.334 0,2.334 H -0.618 V 0 Z m -1.61,3.209 h 1.697 c 1.214,0 2.095,-0.887 2.095,-2.042 0,-1.155 -0.881,-2.042 -2.095,-2.042 H -1.61 Z" />
  </g>
  <g
     id="g4701"
     transform="translate(8.5137788,-18.536812)"
     style="fill:#8b621f;fill-opacity:1">
    <path
       d="m 125.72608,42.473886 h 3.91057 v 6.331508 h 6.91668 v -6.331508 h 3.91057 v 16.12739 h -3.91057 v -6.344489 h -6.91668 v 6.344489 h -3.91057 z"
       id="path58"
       inkscape:connector-curvature="0"
       style="fill:#8b621f;fill-opacity:1;stroke-width:1.29745507" />
    <path
       d="m 150.2843,55.137558 c 2.74546,0 4.5592,-1.933189 4.5592,-4.606009 0,-2.698649 -1.81388,-4.606008 -4.5592,-4.606008 h -2.43917 v 9.211886 z M 143.92289,42.47441 h 6.7027 c 4.79535,0 8.27126,3.503053 8.27126,8.057139 0,4.554087 -3.47591,8.05714 -8.27126,8.05714 h -6.7027 z"
       id="path60"
       inkscape:connector-curvature="0"
       style="fill:#8b621f;fill-opacity:1;stroke-width:1.29745507" />
  </g>
</svg>
